periodic-table.svg

<svg fill="currentColor" viewBox="0 0 24 24"><path d="M2 4v2h2V4zm18 0v2h2V4zM2 7v2h2V7zm3 0v2h2V7zm9 0v2h2V7zm3 0v2h2V7zm3 0v2h2V7zM2 10v2h2v-2zm3 0v2h2v-2zm3 0v2h2v-2zm3 0v2h2v-2zm3 0v2h2v-2zm3 0v2h2v-2zm3 0v2h2v-2zM2 13v2h2v-2zm3 0v2h2v-2zm3 0v2h2v-2zm3 0v2h2v-2zm3 0v2h2v-2zm3 0v2h2v-2zm3 0v2h2v-2zM5 17v2h2v-2zm3 0v2h2v-2zm3 0v2h2v-2zm3 0v2h2v-2zm3 0v2h2v-2z"/></svg>

<svg  viewBox="0 0 24 24" fill="currentColor"><path  d="M2,4V6H4V4H2M20,4V6H22V4H20M2,7V9H4V7H2M5,7V9H7V7H5M14,7V9H16V7H14M17,7V9H19V7H17M20,7V9H22V7H20M2,10V12H4V10H2M5,10V12H7V10H5M8,10V12H10V10H8M11,10V12H13V10H11M14,10V12H16V10H14M17,10V12H19V10H17M20,10V12H22V10H20M2,13V15H4V13H2M5,13V15H7V13H5M8,13V15H10V13H8M11,13V15H13V13H11M14,13V15H16V13H14M17,13V15H19V13H17M20,13V15H22V13H20M5,17V19H7V17H5M8,17V19H10V17H8M11,17V19H13V17H11M14,17V19H16V17H14M17,17V19H19V17H17Z"/></svg>
